X: 3
T: The Handsome Young Maidens
R: jig
M: 6/8
L: 1/8
K: Dmaj
dAG FAE|DFA dcd|eAA GAA|EAA edc|
dAG FAE|DFA dcd|eAA GAA|1 edc d3:|2 edc dAG||
F2 A FAF|G2 B BAG|FGA dAF|EBA BAG|
F2 A FAF|G2 B BAG|AFA dAF|FEc d3:|


Tune 145	Setting 190

